images/plane.svg

<svg width="48" height="48" viewBox="0 0 48 48" fill="none" xmlns="http://www.w3.org/2000/svg">
<path d="M40.2688 43.2596C40.1125 43.2598 39.9608 43.2066 39.8389 43.1087L20.2441 27.3461C20.2249 27.3303 20.2064 27.3139 20.1892 27.2967L5.72836 12.8356C3.6753 10.7827 1.91602 8.45574 0.500526 5.92081C0.0805973 5.16384 -0.08155 4.29075 0.0385852 3.43348C0.15872 2.57621 0.55461 1.78133 1.16644 1.16895C1.77826 0.556575 2.57277 0.159974 3.42992 0.0390775C4.28707 -0.0818191 5.16029 0.0795578 5.91761 0.498824C8.45364 1.91441 10.7815 3.6742 12.835 5.72812L27.2973 20.1886C27.3144 20.2057 27.3309 20.2242 27.3466 20.2434L43.1083 39.8399C43.2143 39.9717 43.2679 40.1379 43.2588 40.3067C43.2497 40.4756 43.1785 40.6351 43.0589 40.7547L40.7536 43.0601C40.69 43.1237 40.6144 43.1741 40.5311 43.2083C40.4479 43.2426 40.3588 43.26 40.2688 43.2596ZM21.1328 26.3004L40.2187 41.6543L41.6539 40.2191L26.3009 21.1321L11.8668 6.69773C9.90331 4.73405 7.67768 3.05135 5.25316 1.69746C4.75641 1.42245 4.18366 1.31657 3.62142 1.39583C3.05919 1.47508 2.53802 1.73516 2.13664 2.13677C1.73527 2.53839 1.4755 3.05972 1.39657 3.62201C1.31764 4.1843 1.42385 4.757 1.69914 5.2536C3.05256 7.67786 4.73503 9.90311 6.69863 11.866L21.1328 26.3004Z" fill="#E12126"/>
<path d="M41.0327 39.0445C40.8971 39.0445 40.7645 39.0042 40.6518 38.9289C40.5391 38.8535 40.4512 38.7465 40.3993 38.6212C40.3474 38.4959 40.3338 38.358 40.3603 38.225C40.3867 38.092 40.452 37.9699 40.5479 37.874L46.3448 32.0769L45.0701 30.8022C44.9076 30.6414 44.7079 30.5232 44.4888 30.4581C44.2696 30.393 44.0378 30.3831 43.8139 30.4291L35.6506 32.1551C35.4726 32.1927 35.287 32.1581 35.1345 32.0589C34.9821 31.9597 34.8753 31.804 34.8377 31.626C34.8 31.4481 34.8346 31.2625 34.9338 31.11C35.033 30.9576 35.1887 30.8508 35.3667 30.8131L43.53 29.0872C43.9774 28.9955 44.4405 29.0155 44.8782 29.1456C45.316 29.2756 45.7149 29.5115 46.0397 29.8325L47.7992 31.5921C47.9278 31.7207 48 31.8951 48 32.0769C48 32.2587 47.9278 32.4331 47.7992 32.5617L41.5175 38.8436C41.454 38.9075 41.3784 38.9581 41.2952 38.9926C41.212 39.0271 41.1228 39.0447 41.0327 39.0445Z" fill="#E12126"/>
<path d="M32.0773 48C31.8955 48 31.7211 47.9277 31.5925 47.7991L29.833 46.0395C29.5118 45.7149 29.2756 45.316 29.1456 44.8781C29.0156 44.4403 28.9957 43.9772 29.0876 43.5298L30.8136 35.3697C30.8512 35.1918 30.958 35.0361 31.1105 34.9369C31.2629 34.8376 31.4485 34.8031 31.6265 34.8407C31.8044 34.8783 31.9601 34.9851 32.0593 35.1376C32.1586 35.29 32.1931 35.4757 32.1555 35.6536L30.4296 43.8171C30.3835 44.0408 30.3935 44.2724 30.4586 44.4914C30.5237 44.7103 30.6418 44.9097 30.8026 45.072L32.0773 46.3474L37.8743 40.5503C38.0036 40.4254 38.1768 40.3563 38.3566 40.3579C38.5364 40.3594 38.7084 40.4316 38.8355 40.5587C38.9627 40.6858 39.0348 40.8578 39.0363 41.0376C39.0379 41.2174 38.9688 41.3906 38.8439 41.5199L32.5621 47.8018C32.4331 47.9294 32.2588 48.0007 32.0773 48Z" fill="#E12126"/>
<path d="M43.7254 44.4109C43.5436 44.4109 43.3692 44.3386 43.2406 44.21L34.4903 35.4561C34.3654 35.3268 34.2963 35.1536 34.2979 34.9738C34.2994 34.794 34.3716 34.622 34.4987 34.4949C34.6258 34.3677 34.7978 34.2956 34.9776 34.2941C35.1574 34.2925 35.3306 34.3616 35.4599 34.4865L44.2102 43.2404C44.3061 43.3363 44.3714 43.4585 44.3978 43.5915C44.4243 43.7245 44.4107 43.8623 44.3588 43.9876C44.3069 44.1129 44.2191 44.22 44.1063 44.2953C43.9936 44.3707 43.861 44.4109 43.7254 44.4109Z" fill="#E12126"/>
<path d="M27.1457 21.7733C26.9979 21.7733 26.854 21.7256 26.7355 21.6372C26.617 21.5489 26.5303 21.4245 26.4882 21.2828C26.4461 21.1411 26.4509 20.9896 26.5019 20.8509C26.553 20.7121 26.6474 20.5936 26.7713 20.5129L42.642 10.1908L39.0763 6.62506C38.8332 6.38324 38.5263 6.21553 38.1915 6.14147C37.8566 6.06741 37.5076 6.09006 37.1852 6.20677L18.682 12.9522C18.5115 13.0133 18.3237 13.0043 18.1596 12.9274C17.9956 12.8504 17.8687 12.7117 17.8067 12.5415C17.7446 12.3712 17.7525 12.1834 17.8285 12.0189C17.9045 11.8545 18.0425 11.7268 18.2123 11.6637L36.7148 4.91762C37.2826 4.71239 37.8971 4.67272 38.4866 4.80323C39.0761 4.93373 39.6164 5.22904 40.0446 5.65477L44.2095 9.81983C44.2817 9.89203 44.3368 9.97944 44.3709 10.0757C44.4049 10.1719 44.4171 10.2745 44.4065 10.376C44.3958 10.4775 44.3626 10.5754 44.3093 10.6625C44.2561 10.7495 44.184 10.8236 44.0985 10.8793L27.5194 21.6622C27.4082 21.7346 27.2784 21.7732 27.1457 21.7733Z" fill="#E12126"/>
<path d="M21.7307 11.8036C21.5489 11.8036 21.3745 11.7313 21.2459 11.6027L19.7668 10.1236C19.6394 9.99623 19.5384 9.84502 19.4694 9.67859C19.4005 9.51216 19.365 9.33378 19.365 9.15364C19.365 8.97349 19.4005 8.79511 19.4694 8.62868C19.5384 8.46225 19.6394 8.31104 19.7668 8.18369L21.1636 6.78825C21.4249 6.53871 21.7723 6.39948 22.1336 6.39948C22.4948 6.39948 22.8422 6.53871 23.1035 6.78825L25.6804 9.36587C25.8053 9.4952 25.8744 9.66841 25.8728 9.8482C25.8713 10.028 25.7992 10.2 25.672 10.3271C25.5449 10.4543 25.3729 10.5264 25.1931 10.5279C25.0133 10.5295 24.8401 10.4604 24.7108 10.3355L22.1332 7.75785L20.7364 9.15466L22.2162 10.6331C22.3121 10.729 22.3773 10.8511 22.4038 10.9841C22.4302 11.1171 22.4166 11.255 22.3648 11.3803C22.3129 11.5056 22.225 11.6126 22.1123 11.688C21.9995 11.7633 21.867 11.8036 21.7314 11.8036H21.7307Z" fill="#E12126"/>
<path d="M10.3054 44.4109C10.1236 44.4109 9.94921 44.3386 9.82065 44.21L5.65566 40.0457C5.22953 39.6176 4.93396 39.0772 4.80343 38.4874C4.67291 37.8977 4.71283 37.283 4.91853 36.7151L11.6645 18.2123C11.7276 18.0425 11.8552 17.9045 12.0197 17.8285C12.1842 17.7525 12.372 17.7446 12.5422 17.8067C12.7125 17.8687 12.8512 17.9956 12.9282 18.1597C13.0051 18.3237 13.014 18.5115 12.953 18.6821L6.20697 37.1848C6.09015 37.5072 6.06744 37.8561 6.14151 38.1909C6.21558 38.5256 6.38336 38.8324 6.62525 39.0754L10.1909 42.6411L20.5136 26.7708C20.5621 26.694 20.6254 26.6276 20.6998 26.5755C20.7741 26.5234 20.8581 26.4865 20.9469 26.4671C21.0356 26.4477 21.1273 26.4462 21.2167 26.4625C21.306 26.4789 21.3913 26.5128 21.4674 26.5623C21.5435 26.6119 21.609 26.6761 21.6601 26.7512C21.7113 26.8263 21.7469 26.9108 21.7651 26.9998C21.7833 27.0888 21.7836 27.1805 21.7661 27.2696C21.7485 27.3587 21.7134 27.4435 21.6628 27.5189L10.8801 44.0989C10.8244 44.1845 10.7503 44.2565 10.6632 44.3098C10.5761 44.3631 10.4783 44.3962 10.3768 44.4068C10.3531 44.4095 10.3293 44.4109 10.3054 44.4109Z" fill="#E12126"/>
<path d="M9.85015 25.8814C9.6683 25.8814 9.49392 25.8091 9.36535 25.6805L6.78778 23.1022C6.53068 22.845 6.38625 22.4963 6.38625 22.1326C6.38625 21.7689 6.53068 21.4202 6.78778 21.163L8.18456 19.7662C8.44575 19.5165 8.79316 19.3771 9.1545 19.3771C9.51583 19.3771 9.86324 19.5165 10.1244 19.7662L11.6035 21.2446C11.7324 21.3732 11.805 21.5477 11.8053 21.7298C11.8055 21.9119 11.7334 22.0866 11.6049 22.2156C11.4763 22.3445 11.3018 22.4171 11.1197 22.4173C10.9376 22.4176 10.7628 22.3455 10.6339 22.2169L9.15415 20.7358L7.75737 22.1326L10.3349 24.7109C10.4308 24.8068 10.4961 24.929 10.5225 25.062C10.549 25.195 10.5354 25.3328 10.4835 25.4581C10.4316 25.5834 10.3438 25.6905 10.231 25.7658C10.1183 25.8412 9.98574 25.8814 9.85015 25.8814Z" fill="#E12126"/>
</svg>

<?xml version="1.0"?>
<svg width="48" height="48" xmlns="http://www.w3.org/2000/svg" xmlns:svg="http://www.w3.org/2000/svg">
 <g class="layer">
  <title>Layer 1</title>
  <path d="m40.27,43.26c-0.16,0 -0.31,-0.05 -0.43,-0.15l-19.6,-15.76c-0.02,-0.02 -0.03,-0.04 -0.05,-0.05l-14.46,-14.46c-2.05,-2.06 -3.81,-4.38 -5.23,-6.92c-0.42,-0.76 -0.58,-1.63 -0.46,-2.49c0.12,-0.85 0.51,-1.65 1.13,-2.26c0.61,-0.61 1.4,-1.01 2.26,-1.13c0.86,-0.12 1.73,0.04 2.49,0.46c2.53,1.41 4.86,3.17 6.92,5.23l14.46,14.46c0.01,0.02 0.03,0.03 0.05,0.05l15.76,19.6c0.1,0.13 0.16,0.3 0.15,0.47c-0.01,0.17 -0.08,0.33 -0.2,0.44l-2.31,2.31c-0.06,0.06 -0.14,0.11 -0.22,0.15c-0.08,0.03 -0.17,0.05 -0.26,0.05zm-19.14,-16.96l19.09,15.35l1.43,-1.43l-15.35,-19.09l-14.43,-14.43c-1.97,-1.97 -4.19,-3.65 -6.62,-5c-0.49,-0.28 -1.07,-0.38 -1.63,-0.3c-0.56,0.08 -1.08,0.34 -1.48,0.74c-0.4,0.4 -0.66,0.92 -0.74,1.48c-0.08,0.56 0.02,1.14 0.3,1.63c1.35,2.43 3.04,4.65 5,6.62l14.43,14.43z" fill="#888888" id="svg_1"/>
  <path d="m41.03,39.04c-0.13,0 -0.27,-0.04 -0.38,-0.11c-0.11,-0.08 -0.2,-0.18 -0.25,-0.31c-0.05,-0.12 -0.07,-0.26 -0.04,-0.39c0.03,-0.14 0.09,-0.26 0.19,-0.36l5.79,-5.79l-1.27,-1.28c-0.16,-0.16 -0.36,-0.28 -0.58,-0.34c-0.22,-0.07 -0.45,-0.08 -0.68,-0.03l-8.16,1.73c-0.18,0.03 -0.36,0 -0.52,-0.1c-0.15,-0.1 -0.25,-0.26 -0.29,-0.43c-0.04,-0.18 -0.01,-0.37 0.09,-0.52c0.1,-0.15 0.26,-0.26 0.44,-0.3l8.16,-1.72c0.45,-0.09 0.91,-0.07 1.35,0.06c0.44,0.13 0.83,0.36 1.16,0.68l1.76,1.76c0.13,0.13 0.2,0.31 0.2,0.49c0,0.18 -0.07,0.35 -0.2,0.48l-6.28,6.28c-0.07,0.07 -0.14,0.12 -0.22,0.15c-0.09,0.04 -0.18,0.05 -0.27,0.05z" fill="#888888" id="svg_2"/>
  <path d="m32.08,48c-0.18,0 -0.36,-0.07 -0.49,-0.2l-1.76,-1.76c-0.32,-0.33 -0.55,-0.72 -0.68,-1.16c-0.13,-0.44 -0.15,-0.9 -0.06,-1.35l1.72,-8.16c0.04,-0.18 0.15,-0.33 0.3,-0.43c0.15,-0.1 0.34,-0.14 0.52,-0.1c0.17,0.04 0.33,0.15 0.43,0.3c0.1,0.15 0.13,0.34 0.1,0.51l-1.73,8.17c-0.05,0.22 -0.04,0.45 0.03,0.67c0.06,0.22 0.18,0.42 0.34,0.58l1.28,1.28l5.79,-5.8c0.13,-0.12 0.31,-0.19 0.49,-0.19c0.18,0 0.35,0.07 0.48,0.2c0.12,0.13 0.19,0.3 0.2,0.48c0,0.18 -0.07,0.35 -0.2,0.48l-6.28,6.28c-0.13,0.13 -0.3,0.2 -0.48,0.2z" fill="#888888" id="svg_3"/>
  <path d="m43.73,44.41c-0.19,0 -0.36,-0.07 -0.49,-0.2l-8.75,-8.75c-0.12,-0.13 -0.19,-0.31 -0.19,-0.49c0,-0.18 0.07,-0.35 0.2,-0.48c0.13,-0.12 0.3,-0.19 0.48,-0.2c0.18,0 0.35,0.07 0.48,0.2l8.75,8.75c0.1,0.1 0.16,0.22 0.19,0.35c0.02,0.13 0.01,0.27 -0.04,0.4c-0.05,0.12 -0.14,0.23 -0.25,0.31c-0.12,0.07 -0.25,0.11 -0.38,0.11z" fill="#888888" id="svg_4"/>
  <path d="m27.15,21.77c-0.15,0 -0.3,-0.04 -0.41,-0.13c-0.12,-0.09 -0.21,-0.22 -0.25,-0.36c-0.04,-0.14 -0.04,-0.29 0.01,-0.43c0.05,-0.14 0.15,-0.26 0.27,-0.34l15.87,-10.32l-3.56,-3.56c-0.25,-0.25 -0.55,-0.41 -0.89,-0.49c-0.33,-0.07 -0.68,-0.05 -1,0.07l-18.51,6.74c-0.17,0.06 -0.36,0.05 -0.52,-0.02c-0.16,-0.08 -0.29,-0.22 -0.35,-0.39c-0.07,-0.17 -0.06,-0.36 0.02,-0.52c0.07,-0.17 0.21,-0.29 0.38,-0.36l18.5,-6.74c0.57,-0.21 1.19,-0.25 1.78,-0.12c0.59,0.13 1.13,0.43 1.55,0.85l4.17,4.17c0.07,0.07 0.13,0.16 0.16,0.26c0.03,0.09 0.05,0.19 0.04,0.3c-0.01,0.1 -0.05,0.2 -0.1,0.28c-0.05,0.09 -0.13,0.16 -0.21,0.22l-16.58,10.78c-0.11,0.07 -0.24,0.11 -0.37,0.11z" fill="#888888" id="svg_5"/>
  <path d="m21.73,11.8c-0.18,0 -0.36,-0.07 -0.48,-0.2l-1.48,-1.48c-0.13,-0.12 -0.23,-0.27 -0.3,-0.44c-0.07,-0.17 -0.11,-0.35 -0.11,-0.53c0,-0.18 0.04,-0.35 0.11,-0.52c0.07,-0.17 0.17,-0.32 0.3,-0.45l1.39,-1.39c0.26,-0.25 0.61,-0.39 0.97,-0.39c0.36,0 0.71,0.14 0.97,0.39l2.58,2.58c0.13,0.13 0.19,0.3 0.19,0.48c0,0.18 -0.07,0.35 -0.2,0.48c-0.13,0.12 -0.3,0.2 -0.48,0.2c-0.18,0 -0.35,-0.07 -0.48,-0.19l-2.58,-2.58l-1.39,1.39l1.48,1.48c0.09,0.1 0.16,0.22 0.18,0.35c0.03,0.14 0.02,0.28 -0.04,0.4c-0.05,0.13 -0.13,0.23 -0.25,0.31c-0.11,0.07 -0.24,0.11 -0.38,0.11l0,0z" fill="#888888" id="svg_6"/>
  <path d="m10.31,44.41c-0.19,0 -0.36,-0.07 -0.49,-0.2l-4.16,-4.16c-0.43,-0.43 -0.73,-0.97 -0.86,-1.56c-0.13,-0.59 -0.09,-1.21 0.12,-1.77l6.74,-18.51c0.07,-0.17 0.2,-0.31 0.36,-0.38c0.16,-0.08 0.35,-0.09 0.52,-0.02c0.17,0.06 0.31,0.19 0.39,0.35c0.08,0.16 0.08,0.35 0.02,0.52l-6.74,18.5c-0.12,0.33 -0.14,0.68 -0.07,1.01c0.08,0.34 0.24,0.64 0.49,0.89l3.56,3.56l10.32,-15.87c0.05,-0.08 0.12,-0.14 0.19,-0.19c0.07,-0.06 0.16,-0.09 0.25,-0.11c0.09,-0.02 0.18,-0.02 0.27,-0.01c0.09,0.02 0.17,0.05 0.25,0.1c0.07,0.05 0.14,0.12 0.19,0.19c0.05,0.08 0.09,0.16 0.11,0.25c0.01,0.09 0.01,0.18 0,0.27c-0.02,0.09 -0.06,0.17 -0.11,0.25l-10.78,16.58c-0.06,0.08 -0.13,0.16 -0.22,0.21c-0.08,0.05 -0.18,0.09 -0.28,0.1c-0.03,0 -0.05,0 -0.07,0z" fill="#888888" id="svg_7"/>
  <path d="m9.85,25.88c-0.18,0 -0.36,-0.07 -0.48,-0.2l-2.58,-2.58c-0.26,-0.26 -0.4,-0.6 -0.4,-0.97c0,-0.36 0.14,-0.71 0.4,-0.97l1.39,-1.39c0.27,-0.25 0.61,-0.39 0.97,-0.39c0.37,0 0.71,0.14 0.97,0.39l1.48,1.47c0.13,0.13 0.2,0.31 0.21,0.49c0,0.18 -0.08,0.36 -0.21,0.49c-0.12,0.12 -0.3,0.2 -0.48,0.2c-0.18,0 -0.36,-0.07 -0.49,-0.2l-1.48,-1.48l-1.39,1.39l2.57,2.58c0.1,0.1 0.17,0.22 0.19,0.35c0.03,0.14 0.02,0.27 -0.04,0.4c-0.05,0.12 -0.14,0.23 -0.25,0.31c-0.11,0.07 -0.24,0.11 -0.38,0.11z" fill="#888888" id="svg_8"/>
 </g>
</svg>
